icons/circle/48/awn-applet.svg

<svg xmlns="http://www.w3.org/2000/svg" viewBox="0 0 48 48">
 <defs>
  <linearGradient id="linearGradient3764" x1="1" x2="47" gradientUnits="userSpaceOnUse" gradientTransform="matrix(0,-1,1,0,-1.5e-6,47.999998)">
   <stop style="stop-color:#48a1e0;stop-opacity:1"/>
   <stop offset="1" style="stop-color:#5aa9e3;stop-opacity:1"/>
  </linearGradient>
 </defs>
 <g>
  <path d="m 36.31 5 c 5.859 4.062 9.688 10.831 9.688 18.5 c 0 12.426 -10.07 22.5 -22.5 22.5 c -7.669 0 -14.438 -3.828 -18.5 -9.688 c 1.037 1.822 2.306 3.499 3.781 4.969 c 4.085 3.712 9.514 5.969 15.469 5.969 c 12.703 0 23 -10.298 23 -23 c 0 -5.954 -2.256 -11.384 -5.969 -15.469 c -1.469 -1.475 -3.147 -2.744 -4.969 -3.781 z m 4.969 3.781 c 3.854 4.113 6.219 9.637 6.219 15.719 c 0 12.703 -10.297 23 -23 23 c -6.081 0 -11.606 -2.364 -15.719 -6.219 c 4.16 4.144 9.883 6.719 16.219 6.719 c 12.703 0 23 -10.298 23 -23 c 0 -6.335 -2.575 -12.06 -6.719 -16.219 z" style="opacity:0.05"/>
  <path d="m 41.28 8.781 c 3.712 4.085 5.969 9.514 5.969 15.469 c 0 12.703 -10.297 23 -23 23 c -5.954 0 -11.384 -2.256 -15.469 -5.969 c 4.113 3.854 9.637 6.219 15.719 6.219 c 12.703 0 23 -10.298 23 -23 c 0 -6.081 -2.364 -11.606 -6.219 -15.719 z" style="opacity:0.1"/>
  <path d="m 31.25 2.375 c 8.615 3.154 14.75 11.417 14.75 21.13 c 0 12.426 -10.07 22.5 -22.5 22.5 c -9.708 0 -17.971 -6.135 -21.12 -14.75 a 23 23 0 0 0 44.875 -7 a 23 23 0 0 0 -16 -21.875 z" style="opacity:0.2"/>
 </g>
 <g>
  <path d="m 24 1 c 12.703 0 23 10.297 23 23 c 0 12.703 -10.297 23 -23 23 -12.703 0 -23 -10.297 -23 -23 0 -12.703 10.297 -23 23 -23 z" style="fill:url(#linearGradient3764);fill-opacity:1"/>
 </g>
 <g>
  <g>
   <g transform="translate(1,1)">
    <g style="opacity:0.1">
     <!-- color: #5aa9e3 -->
     <g>
      <path d="m 24.832 11 c -3.5 0 -1.75 2.914 -1.75 2.914 l -4.082 0 l 0 4.082 c 0 0 2.918 -2.023 2.918 1.461 c 0 3.496 -2.918 1.461 -2.918 1.461 l 0 4.082 l 4.082 0 c 0 0 -1.398 -2.918 1.75 -2.918 c 3.223 0 1.75 2.918 1.75 2.918 l 4.082 0 l 0 -4.082 c 0 0 2.336 1.457 2.336 -1.461 c 0 -2.336 -1.168 -2.039 -2.336 -1.461 l 0 -4.082 l -4.082 0 c 0 0 1.75 -2.914 -1.75 -2.914 z m -10.504 16 c -0.73 0 -1.328 0.594 -1.328 1.328 l 0 2.672 l -3 0 l -1 5 l 32 0 l -1 -5 l -2.99 0 l 0 -2.672 c 0 -0.734 -0.601 -1.328 -1.328 -1.328 l -3.352 0 c -0.722 0 -1.32 0.594 -1.32 1.328 l 0 2.672 l -3.01 0 l 0 -2.672 c 0 -0.734 -0.594 -1.328 -1.328 -1.328 l -3.344 0 c -0.73 0 -1.328 0.594 -1.328 1.328 l 0 2.672 l -3 0 l 0 -2.672 c 0 -0.734 -0.594 -1.328 -1.328 -1.328 l -3.344 0 z" transform="translate(-1,-1)"/>
     </g>
    </g>
   </g>
  </g>
 </g>
 <g>
  <g>
   <!-- color: #5aa9e3 -->
   <g>
    <path d="m 9 30 l -1 5 l 32 0 l -1 -5 m -30 0" style="fill:#2d2d2d;fill-opacity:1;stroke:none;fill-rule:nonzero"/>
    <path d="m 13.328 26 l 3.344 0 c 0.734 0 1.328 0.594 1.328 1.328 l 0 3.344 c 0 0.734 -0.594 1.328 -1.328 1.328 l -3.344 0 c -0.73 0 -1.328 -0.594 -1.328 -1.328 l 0 -3.344 c 0 -0.734 0.598 -1.328 1.328 -1.328 m 0 0" style="fill:#f9f9f9;fill-opacity:1;stroke:none;fill-rule:nonzero"/>
    <path d="m 22.328 26 l 3.344 0 c 0.734 0 1.328 0.594 1.328 1.328 l 0 3.344 c 0 0.734 -0.594 1.328 -1.328 1.328 l -3.344 0 c -0.73 0 -1.328 -0.594 -1.328 -1.328 l 0 -3.344 c 0 -0.734 0.598 -1.328 1.328 -1.328 m 0 0" style="fill:#f9f9f9;fill-opacity:1;stroke:none;fill-rule:nonzero"/>
    <path d="m 31.33 26 l 3.352 0 c 0.727 0 1.328 0.594 1.328 1.328 l 0 3.344 c 0 0.734 -0.602 1.328 -1.328 1.328 l -3.352 0 c -0.727 0 -1.32 -0.594 -1.32 -1.328 l 0 -3.344 c 0 -0.734 0.598 -1.328 1.32 -1.328 m 0 0" style="fill:#f9f9f9;fill-opacity:1;stroke:none;fill-rule:nonzero"/>
    <path d="m 18 12.914 l 0 4.082 c 0 0 2.918 -2.023 2.918 1.461 c 0 3.496 -2.918 1.461 -2.918 1.461 l 0 4.082 l 4.082 0 c 0 0 -1.398 -2.918 1.75 -2.918 c 3.223 0 1.75 2.918 1.75 2.918 l 4.082 0 l 0 -4.082 c 0 0 2.336 1.457 2.336 -1.461 c 0 -2.336 -1.168 -2.039 -2.336 -1.461 l 0 -4.082 l -4.082 0 c 0 0 1.75 -2.914 -1.75 -2.914 c -3.5 0 -1.75 2.914 -1.75 2.914 m -4.082 0" style="fill:#fff;fill-opacity:1;stroke:none;fill-rule:nonzero"/>
   </g>
  </g>
 </g>
 <g>
  <path d="m 40.03 7.531 c 3.712 4.084 5.969 9.514 5.969 15.469 0 12.703 -10.297 23 -23 23 c -5.954 0 -11.384 -2.256 -15.469 -5.969 4.178 4.291 10.01 6.969 16.469 6.969 c 12.703 0 23 -10.298 23 -23 0 -6.462 -2.677 -12.291 -6.969 -16.469 z" style="opacity:0.1"/>
 </g>
</svg>

<svg xmlns="http://www.w3.org/2000/svg" viewBox="0 0 48 48">
  <defs>
    <linearGradient id="a" x1="1" x2="47" gradientUnits="userSpaceOnUse" gradientTransform="rotate(-90 24 24)">
      <stop stop-color="#48a1e0"/>
      <stop offset="1" stop-color="#5aa9e3"/>
    </linearGradient>
  </defs>
  <path d="M36.31 5c5.859 4.062 9.688 10.831 9.688 18.5 0 12.426-10.07 22.5-22.5 22.5-7.669 0-14.438-3.828-18.5-9.688a23.24 23.24 0 0 0 3.781 4.969 22.923 22.923 0 0 0 15.469 5.969c12.703 0 23-10.298 23-23a22.92 22.92 0 0 0-5.969-15.469A23.216 23.216 0 0 0 36.31 5zm4.969 3.781A22.911 22.911 0 0 1 47.498 24.5c0 12.703-10.297 23-23 23a22.909 22.909 0 0 1-15.719-6.219C12.939 45.425 18.662 48 24.998 48c12.703 0 23-10.298 23-23 0-6.335-2.575-12.06-6.719-16.219z" opacity=".05"/>
  <path d="M41.28 8.781a22.923 22.923 0 0 1 5.969 15.469c0 12.703-10.297 23-23 23A22.92 22.92 0 0 1 8.78 41.281 22.911 22.911 0 0 0 24.499 47.5c12.703 0 23-10.298 23-23A22.909 22.909 0 0 0 41.28 8.781z" opacity=".1"/>
  <path d="M31.25 2.375C39.865 5.529 46 13.792 46 23.505c0 12.426-10.07 22.5-22.5 22.5-9.708 0-17.971-6.135-21.12-14.75a23 23 0 0 0 44.875-7 23 23 0 0 0-16-21.875z" opacity=".2"/>
  <path d="M24 1c12.703 0 23 10.297 23 23S36.703 47 24 47 1 36.703 1 24 11.297 1 24 1z" fill="url(#a)"/>
  <path d="M24.832 11c-3.5 0-1.75 2.914-1.75 2.914H19v4.082s2.918-2.023 2.918 1.461c0 3.496-2.918 1.461-2.918 1.461V25h4.082s-1.398-2.918 1.75-2.918c3.223 0 1.75 2.918 1.75 2.918h4.082v-4.082S33 22.375 33 19.457c0-2.336-1.168-2.039-2.336-1.461v-4.082h-4.082S28.332 11 24.832 11zM14.328 27A1.33 1.33 0 0 0 13 28.328V31h-3l-1 5h32l-1-5h-2.99v-2.672c0-.734-.601-1.328-1.328-1.328H32.33c-.722 0-1.32.594-1.32 1.328V31H28v-2.672c0-.734-.594-1.328-1.328-1.328h-3.344A1.33 1.33 0 0 0 22 28.328V31h-3v-2.672c0-.734-.594-1.328-1.328-1.328h-3.344z" opacity=".1"/>
  <g>
    <path d="M9 30l-1 5h32l-1-5M9 30" fill="#2d2d2d"/>
    <path d="M13.328 26h3.344c.734 0 1.328.594 1.328 1.328v3.344c0 .734-.594 1.328-1.328 1.328h-3.344A1.33 1.33 0 0 1 12 30.672v-3.344A1.33 1.33 0 0 1 13.328 26m0 0M22.328 26h3.344c.734 0 1.328.594 1.328 1.328v3.344c0 .734-.594 1.328-1.328 1.328h-3.344A1.33 1.33 0 0 1 21 30.672v-3.344A1.33 1.33 0 0 1 22.328 26m0 0M31.33 26h3.352c.727 0 1.328.594 1.328 1.328v3.344c0 .734-.602 1.328-1.328 1.328H31.33c-.727 0-1.32-.594-1.32-1.328v-3.344c0-.734.598-1.328 1.32-1.328m0 0" fill="#f9f9f9"/>
    <path d="M18 12.914v4.082s2.918-2.023 2.918 1.461c0 3.496-2.918 1.461-2.918 1.461V24h4.082s-1.398-2.918 1.75-2.918c3.223 0 1.75 2.918 1.75 2.918h4.082v-4.082S32 21.375 32 18.457c0-2.336-1.168-2.039-2.336-1.461v-4.082h-4.082S27.332 10 23.832 10s-1.75 2.914-1.75 2.914m-4.082 0" fill="#fff"/>
  </g>
  <g>
    <path d="M40.03 7.531A22.922 22.922 0 0 1 45.999 23c0 12.703-10.297 23-23 23A22.92 22.92 0 0 1 7.53 40.031C11.708 44.322 17.54 47 23.999 47c12.703 0 23-10.298 23-23 0-6.462-2.677-12.291-6.969-16.469z" opacity=".1"/>
  </g>
</svg>
